src/lib/packages/icons/src/assets/filled/grid-web-3.svg

<svg xmlns="http://www.w3.org/2000/svg" width="24" height="24" fill="none"><path fill="currentColor" d="M15.5 4h3c1 0 1.5.5 1.5 1.5v13c0 1-.5 1.5-1.5 1.5h-3c-1 0-1.5-.5-1.5-1.5v-13c0-1 .5-1.5 1.5-1.5ZM4 15.5v3c0 1 .5 1.5 1.5 1.5h3c1 0 1.5-.5 1.5-1.5v-3c0-1-.5-1.5-1.5-1.5h-3c-1 0-1.5.5-1.5 1.5Zm0-10v3c0 1 .5 1.5 1.5 1.5h3c1 0 1.5-.5 1.5-1.5v-3c0-1-.5-1.5-1.5-1.5h-3C4.5 4 4 4.5 4 5.5Z"/></svg>

<svg width="24" height="24" viewBox="0 0 24 24" fill="none" xmlns="http://www.w3.org/2000/svg">
<path d="M15.5 4H18.5C19.5 4 20 4.5 20 5.5V18.5C20 19.5 19.5 20 18.5 20H15.5C14.5 20 14 19.5 14 18.5V5.5C14 4.5 14.5 4 15.5 4ZM4 15.5V18.5C4 19.5 4.5 20 5.5 20H8.5C9.5 20 10 19.5 10 18.5V15.5C10 14.5 9.5 14 8.5 14H5.5C4.5 14 4 14.5 4 15.5ZM4 5.5V8.5C4 9.5 4.5 10 5.5 10H8.5C9.5 10 10 9.5 10 8.5V5.5C10 4.5 9.5 4 8.5 4H5.5C4.5 4 4 4.5 4 5.5Z" fill="currentColor"/>
</svg>
